X:1
T:Gloria (Barnes)
T:Gloria (Barnes)
T:French carol, arr. by Edward Shippen Barnes
T:Public Domain Courtesy of the Cyber Hymnal™
C:French carol, arr. by Edward Shippen Barnes
Z:Public Domain
Z:Courtesy of the Cyber Hymnal™
%%score ( 1 2 ) ( 3 4 )
L:1/8
Q:1/4=115
M:none
K:F
V:1 treble 
V:2 treble 
V:3 bass 
V:4 bass 
V:1
 [FA]2 [FA]2 [FA]2 [Fc]2 | c3 [EB] [FA]4 | [FA]2 [EG]2 [FA]2 [Fc]2 | A3 z G x3 | %4
 [FA]2 [FA]2 [EA]2 [Fc]2 | c3 z B [FA]4 | [EA]2 [DG]2 [FA]2 [Gc]2 | A3 z G F4 | c4 dcBA | B4 cBAG | %10
 A4 BAGF x | G3 C C4 | [CF]2 [EG]2 [FA]2 [FB]2 | [FA]4 [EG]4 | c4 dcBA | B4 cBAG | A4 BAGF x | %17
 G3 C C4 | [CF]2 [EG]2 [FA]2 [FB]2 | [FA]4 [EG]4 | [CF]8 |] %21
V:2
 x8 | (G2 E) x5 | x8 | F2 E2 F4 | x8 | F2 G2 x5 | x8 | F2 E2 x5 | F2 AG F4- | F2 GF E4- | %10
 E2 FE D4 x | C3 x5 | x8 | x8 | F2 AG F4- | F2 GF E4- | E2 FE D4 x | C3 x5 | x8 | x8 | x8 |] %21
V:3
 [F,C]2 [F,C]2 [F,C]2 [F,A,]2 | [E,G,]2 [C,C]2 [F,C]4 | [F,C]2 [C,C]2 [F,C]2 [A,C]2 | %3
 C2- (CB,) [F,A,]4 | [F,C]2 [F,C]2 [A,C]2 [F,A,]2 | [D,A,]2 [E,C]2 [F,C]4 x | %6
 [A,,C]2 [B,,D]2 [D,D]2 [E,C]2 | C3 z B, [F,A,]4 | A,4 D4- | [G,D]4 C4- | C4 B,3 z A, | %11
 [E,G,]2 [D,F,]2 E,4 | [A,,F,]2 [C,C]2 [F,C]2 [B,,D]2 | [C,C]4 [C,C]4 | [F,A,]4 D4- | D4 C4- | %16
 [F,C]4 B,3 z A, | [E,G,]2 [D,F,]2 E,4 | [A,,F,]2 [C,C]2 [F,C]2 [B,,D]2 | C6 B,2 | [F,A,]8 |] %21
V:4
 x8 | x8 | x8 | x2 C,2 x4 | x8 | x9 | x8 | F,2 C,2 x5 | F,4 D,2 F,2 | x4 C,2 E,2 | F,4 B,,2 D,2 x | %11
 x4 (C,2 B,,2) | x8 | x8 | x4 D,2 F,2 | G,4 C,2 E,2 | x4 B,,2 D,2 x | x4 (C,2 B,,2) | x8 | C,8 | %20
 x8 |] %21

